api/assets/login.svg

<svg xmlns="http://www.w3.org/2000/svg" xmlns:xlink="http://www.w3.org/1999/xlink" width="614.751" height="421.092" viewBox="0 0 614.751 421.092"><defs><filter id="a" x="0" y="0" width="614.751" height="421.092" filterUnits="userSpaceOnUse"><feOffset dy="1" input="SourceAlpha"/><feGaussianBlur stdDeviation="1.5" result="b"/><feFlood flood-opacity="0.2"/><feComposite operator="in" in2="b"/><feComposite in="SourceGraphic"/></filter><clipPath id="c"><path d="M47.635-85.509a1.462,1.462,0,0,1-1.1-.4,8.624,8.624,0,0,1-.7-.651Q32.3-100.082,18.767-113.608c-.285-.284-.574-.569-.829-.878a1.6,1.6,0,0,1-.036-2.21c.913-1,1.875-1.965,2.88-2.874a1.557,1.557,0,0,1,2.151.022,7.453,7.453,0,0,1,.656.6q13.664,13.665,27.323,27.331a7.156,7.156,0,0,1,.682.755,1.621,1.621,0,0,1-.026,2.112c-.375.459-.807.871-1.224,1.292-.477.484-.958.965-1.455,1.425a1.594,1.594,0,0,1-1.253.524" transform="translate(-17.476 119.992)" fill="none"/></clipPath><linearGradient id="d" x1="0.095" y1="0.762" x2="0.142" y2="0.762" gradientUnits="objectBoundingBox"><stop offset="0" stop-color="#cf09c5"/><stop offset="0.1" stop-color="#d30dbb"/><stop offset="0.2" stop-color="#d811b2"/><stop offset="0.3" stop-color="#dd16a9"/><stop offset="0.4" stop-color="#e21a9f"/><stop offset="0.5" stop-color="#e71e96"/><stop offset="0.6" stop-color="#eb238c"/><stop offset="0.7" stop-color="#f02783"/><stop offset="0.8" stop-color="#f52c7a"/><stop offset="0.9" stop-color="#fa3070"/><stop offset="1" stop-color="#ff3467"/></linearGradient><filter id="e" x="29.305" y="379.092" width="29" height="29" filterUnits="userSpaceOnUse"><feOffset dy="1" input="SourceAlpha"/><feGaussianBlur stdDeviation="1.5" result="f"/><feFlood flood-opacity="0.161"/><feComposite operator="in" in2="f"/><feComposite in="SourceGraphic"/></filter></defs><g transform="translate(-206.195 -159.408)"><g transform="translate(206.195 159.408)"><g transform="matrix(1, 0, 0, 1, 0, 0)" filter="url(#a)"><rect width="605.751" height="412.092" rx="5" transform="translate(4.5 3.5)" fill="#fff"/></g></g><g transform="translate(-6 -9.653)"><g transform="translate(611.001 368.654)"><path d="M20.8-48.318,16.489-37.5l2.667,13.149-1.791.466,2.481,1.53-1.585,1.473,1.716,1.9L18.466-17.8,21.58-13.72l16.134-4.719,10.922-9.633Z" transform="translate(-16.49 48.327)" fill="#814617" fill-rule="evenodd"/><path d="M63.032-48.318,67.34-37.5,64.673-24.351l1.791.466-2.481,1.53,1.585,1.473-1.716,1.9L65.363-17.8,62.249-13.72,46.115-18.438l-10.852-9.61Z" transform="translate(9.133 48.327)" fill="#814617" fill-rule="evenodd"/><path d="M16.52-14.9l5.017-16.04L37.6-35.7l-4.8,6.662L39.35-15.48Z" transform="translate(-16.447 65.548)" fill="#f8911d" fill-rule="evenodd"/><path d="M61.972-14.9l-5.017-16.04L40.9-35.7l4.965,6.722-6.718,13.5Z" transform="translate(14.427 65.548)" fill="#f8911d" fill-rule="evenodd"/><path d="M21.482-9.843,16.52-26.592l13.653-.541,7.882,12.058Z" transform="translate(-16.447 77.237)" fill="#e7811d" fill-rule="evenodd"/><path d="M56.2-9.843l4.961-16.749L47.51-27.133,39.735-15.065Z" transform="translate(15.236 77.237)" fill="#e7811d" fill-rule="evenodd"/><path d="M31.284-27.2l-8.99.149L30.131-15Z" transform="translate(-8.567 77.152)" fill="#d46c16" fill-rule="evenodd"/><path d="M39.221-27.2l8.99.149-7.78,12.075Z" transform="translate(14.536 77.152)" fill="#d46c16" fill-rule="evenodd"/><path d="M36.559-22.212l-9.8-4.983L25.607-14.923Z" transform="translate(-4.046 77.152)" fill="#e7811f" fill-rule="evenodd"/><path d="M35.12-22.429l9.709-4.789,1.2,12.265Z" transform="translate(8.937 77.123)" fill="#e7811f" fill-rule="evenodd"/><path d="M41.387-38.866l-23.07-9.448L46.142-28.072Z" transform="translate(-13.993 48.33)" fill="#e8811f" fill-rule="evenodd"/><path d="M39.748-38.949l23.278-9.372L35.268-28.034Z" transform="translate(9.14 48.321)" fill="#e8811f" fill-rule="evenodd"/><path d="M40.822-23.706l-17.5.28,4.9-6.653L39.3-39.756Z" transform="translate(-7.156 60.011)" fill="#e7811f" fill-rule="evenodd"/><path d="M34.592-23.711l17.5.28-4.923-6.741L36.2-39.752Z" transform="translate(8.216 60.015)" fill="#e7811f" fill-rule="evenodd"/><path d="M29.945-19.585l.448-7.069-7.05-6.215Z" transform="translate(-7.135 69.411)" fill="#e78023" fill-rule="evenodd"/><path d="M39.538-19.477l-.565-7.181,7.112-6.2Z" transform="translate(14.195 69.428)" fill="#e78023" fill-rule="evenodd"/><path d="M31.711-32.938l-1.94,8.057,2.979,8.934Z" transform="translate(1.638 69.316)" fill="#e88123" fill-rule="evenodd"/><path d="M35.275-32.938l1.94,8.057-2.892,8.934Z" transform="translate(7.851 69.316)" fill="#e88123" fill-rule="evenodd"/><path d="M36.106-19.379l-10.5-2.652,4.772,2.876,7.206,2.628Z" transform="translate(-4.045 84.2)" fill="#c8b6a9" fill-rule="evenodd"/><path d="M35.982-19.369l10.551-2.67-4.825,2.893-6.96,2.631Z" transform="translate(8.429 84.191)" fill="#c8b6a9" fill-rule="evenodd"/><path d="M36.537-25.086l-.442,9.875L25.616-17.849Z" transform="translate(-4.033 80.031)" fill="#dcc8bb" fill-rule="evenodd"/><path d="M35.173-25.16l.23,10.051,10.551-2.666Z" transform="translate(9.01 79.931)" fill="#dcc8bb" fill-rule="evenodd"/><path d="M28.069-44.237l21.568-.156-4.53,10.973L42.819.127,35.077.3,32.821-33.451Z" transform="translate(-0.686 53.684)" fill="#f8911d" fill-rule="evenodd"/><path d="M31.72-15.469l9.628-.013,1.391-2.74.331-3.618L41.753-22.8l-10.384.074-1.464.783.2,3.564Z" transform="translate(1.819 83.149)" fill="#c8b6a9" fill-rule="evenodd"/><path d="M23.339-32.581l17.207-.484-1.854,8.722-2.232-4.517L30.5-26.208Z" transform="translate(-7.14 69.141)" fill="#d46c16" fill-rule="evenodd"/><path d="M51.92-32.559,34.7-33.065l1.854,8.722,2.232-4.517,5.962,2.652Z" transform="translate(8.366 69.141)" fill="#d46c16" fill-rule="evenodd"/><path d="M26.685-30.25l8.462,1.9,1.147,3.717,1.6,4.984-1.92,1.6L26.03-23.043Z" transform="translate(-3.468 72.984)" fill="#f8911d" fill-rule="evenodd"/><path d="M45.411-30.247l-8.352,1.892-2.82,9.138L36.263-18.1l9.751-4.966Z" transform="translate(7.735 72.987)" fill="#f8911d" fill-rule="evenodd"/><path d="M29.905-17.719l1.343-.951H41.767l1.362.914-.765-6.565L40.7-25.664l-8.076-.112-1.94,1.6Z" transform="translate(1.82 79.09)" fill="#181818" fill-rule="evenodd"/><path d="M32.4-31.431l-6.08,2.816,8.412,2.089Z" transform="translate(-3.066 71.371)" fill="#233346" fill-rule="evenodd"/><path d="M37.767-31.431l6.08,2.816-8.412,2.089Z" transform="translate(9.368 71.371)" fill="#233346" fill-rule="evenodd"/></g><text transform="translate(573 481)" fill="#676767" stroke="rgba(0,0,0,0)" stroke-width="1" font-size="16" font-family="Roboto-Regular, Roboto"><tspan x="0" y="0">Login with Metamask</tspan></text></g><g transform="translate(-28 -12.589)"><text transform="translate(353 484)" fill="#676767" stroke="rgba(0,0,0,0)" stroke-width="1" font-size="16" font-family="Roboto-Regular, Roboto"><tspan x="0" y="0">Login with Bitski</tspan></text><g transform="translate(377 368.589)"><path d="M44.182-123.722a4.342,4.342,0,0,0-2.863,1.3c-1.077,1.053-2.135,2.125-3.2,3.192a3.757,3.757,0,0,0-.255.284,1.521,1.521,0,0,0-.02,2.227,6.184,6.184,0,0,0,.428.471q1.392,1.4,2.79,2.79a5.265,5.265,0,0,0,.423.384,1.555,1.555,0,0,0,2.238-.018c.114-.094.222-.2.327-.3,1.02-1.02,2.047-2.033,3.054-3.065a5.609,5.609,0,0,0,.787-.994,3.445,3.445,0,0,0,.193-3.461,4.9,4.9,0,0,0-2.449-2.4,9.7,9.7,0,0,0-1.454-.408M69.6-110.542a10.138,10.138,0,0,0-.309-1.222,4.585,4.585,0,0,0-1.615-2.008,3.436,3.436,0,0,0-3.54-.474,8,8,0,0,0-2.681,1.9q-2.75,2.744-5.493,5.492c-.96.961-1.933,1.908-2.872,2.888a1.56,1.56,0,0,0-.039,2.467c1.125,1.182,2.281,2.341,3.467,3.463a1.558,1.558,0,0,0,2.376.008c.08-.069.157-.143.232-.218,2.761-2.761,5.529-5.516,8.275-8.29a13.034,13.034,0,0,0,1.366-1.671,4.463,4.463,0,0,0,.832-2.331M43.57-139.822a16.49,16.49,0,0,1,8.66,2.6,22.321,22.321,0,0,1,7.139,7.053c.23.355.475.7.738,1.035a1.644,1.644,0,0,0,1.8.625c.906-.216,1.814-.435,2.734-.571a14.527,14.527,0,0,1,8.8,1.324,23.341,23.341,0,0,1,10.467,10.08,15.788,15.788,0,0,1,.125,14.867,23.882,23.882,0,0,1-4.526,6.423c-2.547,2.616-5.142,5.182-7.721,7.767q-5.6,5.609-11.21,11.21c-.2.194-.388.392-.6.573a1.48,1.48,0,0,1-2.169.02c-.261-.216-.495-.465-.735-.7Q46.517-88.075,35.961-98.632,26.6-108,17.235-117.365a6.738,6.738,0,0,1-.714-.81,1.331,1.331,0,0,1,0-1.657,3.962,3.962,0,0,1,.45-.533c4.592-4.59,9.167-9.2,13.792-13.759a20.263,20.263,0,0,1,7.512-4.78,15.733,15.733,0,0,1,5.3-.918" transform="translate(-16.23 139.822)" fill="#1413c1"/><g transform="translate(2.441 38.884)" clip-path="url(#c)"><g transform="matrix(0.713, 0.701, -0.701, 0.713, 378.889, -489.125)"><path d="M0,589.121,598.824,0,812.33,217.022,213.506,806.143Z" transform="translate(0 0)" fill="url(#d)"/></g></g></g></g><line x1="606" transform="translate(210.5 531.5)" fill="none" stroke="#dbdbdb" stroke-width="1"/><text transform="translate(252 258)" fill="#696969" stroke="rgba(0,0,0,0)" stroke-width="1" font-size="16" font-family="Roboto-Regular, Roboto"><tspan x="0" y="17">To use the Dashboard, you need an existing Ethereum wallet address to </tspan><tspan x="0" y="39">manage your ledgers, which is handled by either Metamask or Bitski client.</tspan></text><text transform="translate(271 541)" fill="#696969" stroke="rgba(0,0,0,0)" stroke-width="1" font-size="16" font-family="Roboto-Regular, Roboto"><tspan x="0" y="17">Test mode</tspan></text><text transform="translate(251.692 231.172)" fill="rgba(0,0,0,0.87)" font-size="32" font-family="Roboto-Medium, Roboto" font-weight="500" letter-spacing="0.013em"><tspan x="0" y="0">API Dashboard login</tspan></text><rect width="28" height="14" rx="7" transform="translate(224 545)" fill="#e0e0e0"/><g transform="matrix(1, 0, 0, 1, 206.2, 159.41)" filter="url(#e)"><circle cx="10" cy="10" r="10" transform="translate(33.8 382.59)" fill="#cecece"/></g></g></svg>

<?xml version="1.0" encoding="UTF-8" standalone="no"?>
<!DOCTYPE svg PUBLIC "-//W3C//DTD SVG 1.1//EN" "http://www.w3.org/Graphics/SVG/1.1/DTD/svg11.dtd">
<svg width="100%" height="100%" viewBox="0 0 1230 843" version="1.1" xmlns="http://www.w3.org/2000/svg" xmlns:xlink="http://www.w3.org/1999/xlink" xml:space="preserve" xmlns:serif="http://www.serif.com/" style="fill-rule:evenodd;clip-rule:evenodd;">
    <g transform="matrix(2,0,0,2,0,0)">
        <g transform="matrix(1,0,0,1,-206.195,-159.408)">
            <g transform="matrix(1,0,0,1,210.695,162.908)">
                <g>
                    <path d="M605.751,5C605.751,2.24 603.511,0 600.751,0L5,0C2.24,0 0,2.24 0,5L0,407.092C0,409.852 2.24,412.092 5,412.092L600.751,412.092C603.511,412.092 605.751,409.852 605.751,407.092L605.751,5Z" style="fill:white;"/>
                </g>
            </g>
            <g transform="matrix(1,0,0,1,-136,-9.653)">
                <g transform="matrix(1,0,0,1,611.001,368.654)">
                    <g transform="matrix(1,0,0,1,-16.49,48.327)">
                        <path d="M20.8,-48.318L16.489,-37.5L19.156,-24.351L17.365,-23.885L19.846,-22.355L18.261,-20.882L19.977,-18.982L18.466,-17.8L21.58,-13.72L37.714,-18.439L48.636,-28.072L20.8,-48.318Z" style="fill:rgb(129,70,23);"/>
                    </g>
                    <g transform="matrix(1,0,0,1,9.133,48.327)">
                        <path d="M63.032,-48.318L67.34,-37.5L64.673,-24.351L66.464,-23.885L63.983,-22.355L65.568,-20.882L63.852,-18.982L65.363,-17.8L62.249,-13.72L46.115,-18.438L35.263,-28.048L63.032,-48.318Z" style="fill:rgb(129,70,23);"/>
                    </g>
                    <g transform="matrix(1,0,0,1,-16.447,65.548)">
                        <path d="M16.52,-14.9L21.537,-30.94L37.6,-35.7L32.8,-29.038L39.35,-15.48L16.52,-14.9Z" style="fill:rgb(248,145,29);"/>
                    </g>
                    <g transform="matrix(1,0,0,1,14.427,65.548)">
                        <path d="M61.972,-14.9L56.955,-30.94L40.9,-35.7L45.865,-28.978L39.147,-15.478L61.972,-14.9Z" style="fill:rgb(248,145,29);"/>
                    </g>
                    <g transform="matrix(1,0,0,1,-16.447,77.237)">
                        <path d="M21.482,-9.843L16.52,-26.592L30.173,-27.133L38.055,-15.075L21.482,-9.843Z" style="fill:rgb(231,129,29);"/>
                    </g>
                    <g transform="matrix(1,0,0,1,15.236,77.237)">
                        <path d="M56.2,-9.843L61.161,-26.592L47.51,-27.133L39.735,-15.065L56.2,-9.843Z" style="fill:rgb(231,129,29);"/>
                    </g>
                    <g transform="matrix(1,0,0,1,-8.567,77.152)">
                        <path d="M31.284,-27.2L22.294,-27.051L30.131,-15L31.284,-27.2Z" style="fill:rgb(212,108,22);"/>
                    </g>
                    <g transform="matrix(1,0,0,1,14.536,77.152)">
                        <path d="M39.221,-27.2L48.211,-27.051L40.431,-14.976L39.221,-27.2Z" style="fill:rgb(212,108,22);"/>
                    </g>
                    <g transform="matrix(1,0,0,1,-4.046,77.152)">
                        <path d="M36.559,-22.212L26.759,-27.195L25.607,-14.923L36.559,-22.212Z" style="fill:rgb(231,129,31);"/>
                    </g>
                    <g transform="matrix(1,0,0,1,8.937,77.123)">
                        <path d="M35.12,-22.429L44.829,-27.218L46.029,-14.953L35.12,-22.429Z" style="fill:rgb(231,129,31);"/>
                    </g>
                    <g transform="matrix(1,0,0,1,-13.993,48.33)">
                        <path d="M41.387,-38.866L18.317,-48.314L46.142,-28.072L41.387,-38.866Z" style="fill:rgb(232,129,31);"/>
                    </g>
                    <g transform="matrix(1,0,0,1,9.14,48.321)">
                        <path d="M39.748,-38.949L63.026,-48.321L35.268,-28.034L39.748,-38.949Z" style="fill:rgb(232,129,31);"/>
                    </g>
                    <g transform="matrix(1,0,0,1,-7.156,60.011)">
                        <path d="M40.822,-23.706L23.322,-23.426L28.222,-30.079L39.3,-39.756L40.822,-23.706Z" style="fill:rgb(231,129,31);"/>
                    </g>
                    <g transform="matrix(1,0,0,1,8.216,60.015)">
                        <path d="M34.592,-23.711L52.092,-23.431L47.169,-30.172L36.2,-39.752L34.592,-23.711Z" style="fill:rgb(231,129,31);"/>
                    </g>
                    <g transform="matrix(1,0,0,1,-7.135,69.411)">
                        <path d="M29.945,-19.585L30.393,-26.654L23.343,-32.869L29.945,-19.585Z" style="fill:rgb(231,128,35);"/>
                    </g>
                    <g transform="matrix(1,0,0,1,14.195,69.428)">
                        <path d="M39.538,-19.477L38.973,-26.658L46.085,-32.858L39.538,-19.477Z" style="fill:rgb(231,128,35);"/>
                    </g>
                    <g transform="matrix(1,0,0,1,1.638,69.316)">
                        <path d="M31.711,-32.938L29.771,-24.881L32.75,-15.947L31.711,-32.938Z" style="fill:rgb(232,129,35);"/>
                    </g>
                    <g transform="matrix(1,0,0,1,7.851,69.316)">
                        <path d="M35.275,-32.938L37.215,-24.881L34.323,-15.947L35.275,-32.938Z" style="fill:rgb(232,129,35);"/>
                    </g>
                    <g transform="matrix(1,0,0,1,-4.045,84.2)">
                        <path d="M36.106,-19.379L25.606,-22.031L30.378,-19.155L37.584,-16.527L36.106,-19.379Z" style="fill:rgb(200,182,169);"/>
                    </g>
                    <g transform="matrix(1,0,0,1,8.429,84.191)">
                        <path d="M35.982,-19.369L46.533,-22.039L41.708,-19.146L34.748,-16.515L35.982,-19.369Z" style="fill:rgb(200,182,169);"/>
                    </g>
                    <g transform="matrix(1,0,0,1,-4.033,80.031)">
                        <path d="M36.537,-25.086L36.095,-15.211L25.616,-17.849L36.537,-25.086Z" style="fill:rgb(220,200,187);"/>
                    </g>
                    <g transform="matrix(1,0,0,1,9.01,79.931)">
                        <path d="M35.173,-25.16L35.403,-15.109L45.954,-17.775L35.173,-25.16Z" style="fill:rgb(220,200,187);"/>
                    </g>
                    <g transform="matrix(1,0,0,1,-0.686,53.684)">
                        <path d="M28.069,-44.237L49.637,-44.393L45.107,-33.42L42.819,0.127L35.077,0.3L32.821,-33.451L28.069,-44.237Z" style="fill:rgb(248,145,29);"/>
                    </g>
                    <g transform="matrix(1,0,0,1,1.819,83.149)">
                        <path d="M31.72,-15.469L41.348,-15.482L42.739,-18.222L43.07,-21.84L41.753,-22.8L31.369,-22.726L29.905,-21.943L30.105,-18.379L31.72,-15.469Z" style="fill:rgb(200,182,169);"/>
                    </g>
                    <g transform="matrix(1,0,0,1,-7.14,69.141)">
                        <path d="M23.339,-32.581L40.546,-33.065L38.692,-24.343L36.46,-28.86L30.5,-26.208L23.339,-32.581Z" style="fill:rgb(212,108,22);"/>
                    </g>
                    <g transform="matrix(1,0,0,1,8.366,69.141)">
                        <path d="M51.92,-32.559L34.7,-33.065L36.554,-24.343L38.786,-28.86L44.748,-26.208L51.92,-32.559Z" style="fill:rgb(212,108,22);"/>
                    </g>
                    <g transform="matrix(1,0,0,1,-3.468,72.984)">
                        <path d="M26.685,-30.25L35.147,-28.35L36.294,-24.633L37.894,-19.649L35.974,-18.049L26.03,-23.043L26.685,-30.25Z" style="fill:rgb(248,145,29);"/>
                    </g>
                    <g transform="matrix(1,0,0,1,7.735,72.987)">
                        <path d="M45.411,-30.247L37.059,-28.355L34.239,-19.217L36.263,-18.1L46.014,-23.066L45.411,-30.247Z" style="fill:rgb(248,145,29);"/>
                    </g>
                    <g transform="matrix(1,0,0,1,1.82,79.09)">
                        <path d="M29.905,-17.719L31.248,-18.67L41.767,-18.67L43.129,-17.756L42.364,-24.321L40.7,-25.664L32.624,-25.776L30.684,-24.176L29.905,-17.719Z" style="fill:rgb(24,24,24);"/>
                    </g>
                    <g transform="matrix(1,0,0,1,-3.066,71.371)">
                        <path d="M32.4,-31.431L26.32,-28.615L34.732,-26.526L32.4,-31.431Z" style="fill:rgb(35,51,70);"/>
                    </g>
                    <g transform="matrix(1,0,0,1,9.368,71.371)">
                        <path d="M37.767,-31.431L43.847,-28.615L35.435,-26.526L37.767,-31.431Z" style="fill:rgb(35,51,70);"/>
                    </g>
                </g>
                <g transform="matrix(1,0,0,1,573,481)">
                    <text x="0px" y="0px" style="font-family:'Roboto-Regular', 'Roboto';font-size:16px;fill:rgb(103,103,103);stroke:black;stroke-opacity:0;stroke-width:1px;">Login with Metamask</text>
                </g>
            </g>
            <g transform="matrix(1,0,0,1,210.5,531.5)">
                <path d="M606,0L0,0" style="fill:none;fill-rule:nonzero;stroke:rgb(219,219,219);stroke-width:1px;"/>
            </g>
            <g transform="matrix(1,0,0,1,252,258)">
                <g transform="matrix(1,0,0,1,0,17)">
                    <text x="0px" y="0px" style="font-family:'Roboto-Regular', 'Roboto';font-size:16px;fill:rgb(105,105,105);stroke:black;stroke-opacity:0;stroke-width:1px;">T<tspan x="8.773px " y="0px ">o</tspan> use the Dashboard, you need an existing Ethereum wallet address t<tspan x="496.227px " y="0px ">o</tspan></text>
                </g>
                <g transform="matrix(1,0,0,1,0,39)">
                    <text x="0px" y="0px" style="font-family:'Roboto-Regular', 'Roboto';font-size:16px;fill:rgb(105,105,105);stroke:black;stroke-opacity:0;stroke-width:1px;">manage your ledgers, which is handled by Metamask client.</text>
                </g>
            </g>
            <g transform="matrix(1,0,0,1,271,558)">
                <text x="0px" y="0px" style="font-family:'Roboto-Regular', 'Roboto';font-size:16px;fill:rgb(105,105,105);stroke:black;stroke-opacity:0;stroke-width:1px;">Test mode</text>
            </g>
            <g transform="matrix(1,0,0,1,251.692,231.172)">
                <text x="0px" y="0px" style="font-family:'Roboto-Medium', 'Roboto';font-weight:500;font-size:32px;fill-opacity:0.87;">API<tspan x="50.931px " y="0px "> </tspan>Da<tspan x="97.268px " y="0px ">s</tspan>hb<tspan x="149.715px " y="0px ">o</tspan>ar<tspan x="196.646px " y="0px ">d</tspan> l<tspan x="230.999px " y="0px ">o</tspan>gi<tspan x="275.68px " y="0px ">n</tspan></text>
            </g>
            <g transform="matrix(1,0,0,1,224,545)">
                <path d="M28,7C28,3.137 24.863,0 21,0L7,0C3.137,0 0,3.137 0,7C0,10.863 3.137,14 7,14L21,14C24.863,14 28,10.863 28,7Z" style="fill:rgb(224,224,224);"/>
            </g>
            <g transform="matrix(1,0,0,1,240,542)">
                <circle cx="10" cy="10" r="10" style="fill:rgb(206,206,206);"/>
            </g>
        </g>
    </g>
</svg>
